X: 28127
T: Mrs Crehan's
R: reel
M: 4/4
K: Gmajor
G2dG eGdG|G2dB AdBA|G2dG eGdG|(3EFG AB cedB|
G2dG eGdG|G2dB AdBA|G2dG eGdG|(3EFG AB cege||
d2(3Bcd gdBd|gdBd eA~A2|d2(3Bcd gdBd|ecAc BGGB|
d2Bd G3E|DEGB AE~E2|GABc dedc|(3Bcd Ac BGGF||

